X: 28665
T: Musical Priest, The
R: reel
M: 4/4
K: Bminor
|:BA|FBBA BABd|cBAf ecBA|FBBA BABd|cBAF B2 Bc:|
|:d2 dc dfed|cAeA fAeA|dcBc defb|afec B2 Bc:|
|:dB B2 bafb|afec ABce|dB B2 bafb|afec B2 B2:|

